X:1
T:Title
%%score { ( 1 3 5 ) | ( 2 4 ) }
L:1/8
Q:1/4=116
M:4/4
K:C
V:1 bass nm="Grand Piano"
V:3 bass 
V:5 bass 
V:2 bass 
V:4 bass 
V:1
 [E,C]4 [G,B,D]2[K:treble] [G,B,D]2 | E4 z4 | z4[K:bass] [B,D]4 | C4 E4 | z4[K:treble] G4 | %5
w: Abraham~Northrop * *|||||
 B2 A2 G2 ^F2 |[M:3/4] [B,DG]6 |[M:1/4] G2 |[M:4/4] [Ec]4 [Fc]4 | [Ec]6 [CEG]2 | [CFA]4 [CFA]4 | %11
w: ||||||
 [EG]4 z4 | [G,B,D]2 [G,CE]2 [G,B,F]2 [G,B,D]2 |[M:3/4] [G,CE]6 |[M:1/4] [CEG]2 | %15
w: ||||
[M:4/4] [CFA]2 [CFB]2 [CGc]2 c2 | z2 z d d2 d2 | e3 d [Ac]2 [FAd]2 | [EGc]4 [DFB]4 | [CEc]8 |] %20
w: |||||
V:2
 C,4 G,,2 G,,2 | C,3 D, E,2 [F,A,D]2 | [C,G,C]4 G,2 z2 | [C,E,]4 [C,G,C]4 | [B,,G,]4 B,2 z2 | %5
 [D,D]2- [D,A,D]2 B,2 C2 |[M:3/4] G,,6 |[M:1/4] G,2 |[M:4/4] [C,G,]4 [C,A,]4 | [C,G,]6 C,2 | %10
 F,4 F,4 | z2 z D C2 C,2 | G,,2 C,2 D,2 G,,2 |[M:3/4] C,2 D,2 E,2 |[M:1/4] C,2 | %15
[M:4/4] F,2 D,2 E,2[K:treble] [A,C^F]2 | [G,B,G]2 [A,C]2 [B,DG]2 [G,B,G]2 | %17
 G3- [B,DG][K:bass] [A,E]2 F,2 | G,4 G,,4 | C,8 |] %20
V:3
 x6[K:treble] x2 | [G,C]3- [G,-CF] [G,G]2 F2 | E4[K:bass] z2 F,2 | x8 | D4[K:treble] z2 ^C2 | x8 | %6
[M:3/4] x6 |[M:1/4] x2 |[M:4/4] x8 | x8 | x8 | C3- [CF] E2 [G,CE]2 | x8 |[M:3/4] x6 |[M:1/4] x2 | %15
[M:4/4] x8 | d4 z4 | x8 | x8 | x8 |] %20
V:4
 x8 | x8 | z4 G,,4 | x8 | z4 [E,G,]4 | G,2 z2 [D,D]4 |[M:3/4] x6 |[M:1/4] x2 |[M:4/4] x8 | x8 | %10
 x8 | C,6 z2 | x8 |[M:3/4] x6 |[M:1/4] x2 |[M:4/4] x6[K:treble] x2 | x8 | C4[K:bass] z4 | x8 | %19
 x8 |] %20
V:5
 x6[K:treble] x2 | x8 | x4[K:bass] x4 | x8 | x4[K:treble] x4 | x8 |[M:3/4] x6 |[M:1/4] x2 | %8
[M:4/4] x8 | x8 | x8 | x8 | x8 |[M:3/4] x6 |[M:1/4] x2 |[M:4/4] x8 | z2 ^F2 z4 | x8 | x8 | x8 |] %20

